!!!OTL: Weihelied. / C
!!!OTL-incipit:KOMM DU BLANKER WEIHEDEGEN
!!!ARE: Europa, Mitteleuropa, Deutschland
!!!SCT: F0469A
!!!TXL: @@DE
!!!YEM: Copyright 1995, estate of Helmut Schaffrath.
**kern	**text
*ICvox	*
*clefG2	*
*M2/4	*
*k[]	*
*C:	*
=1	=1
!LO:TX:a:t=Praesides.	!
!LO:TX:a:t=P:only the highest voice encoded:problem	!
{4.cc/	8._Komm'
16dd/L	du
16bJ	.
=2	=2
4.cc/	blan-
16dd/L	-ker
16bJ	.
=3	=3
16dd/L	Wei-
16ccJ	.
16bL	-he-
16aJ	.
8gL	-de-
8fJ	.
=4	=4
4e	-gen,
8r}	.
{16e	frei-
16c	-er
=5	=5
8g	Männer
8g	.
16gL	frei-
16bJ	.
16b/L	-e
16ddJ	.
=6	=6
(8dd/L	Wehr,
8ccJ)	.
8r}	.
{16a	frei-
16cc/	-er
=7	=7
16cc/L	Män-
16bJ	.
16cc/L	-ner
16aJ	.
8g	frei-
16b/L	-e
16aJ	.
=8	=8
4g	Wehr!
4r}	.
=9	=9
{4.cc/	Bringt
16dd/L	ihn
16bJ	.
=10	=10
4.cc/	feſt-
16dd/L	-lich
16bJ	.
=11	=11
16dd/L	mir
16ccJ	.
16bL	ent-
16aJ	.
8gL	-ge-
8fJ	.
=12	=12
4e	-gen,
8r}	.
{16e	von
16c	durch-
=13	=13
8g	-bohrten
8g	.
16gL	Hü-
16bJ	.
16b/L	-ten
16ddJ	.
=14	=14
(8dd/L	ſchwer,
8ccJ)	.
8r}	von
{16a	durchbohr-
16cc/	.
=15	=15
16cc/L	.
16bJ	.
16cc/L	-ten
16aJ	.
8g	Hü-
16b/L	-ten
16aJ	.
=16	=16
4g	ſchwer.
8r}	.
!LO:TX:a:t=Praesides.	!
{16g	Laßt
16g	uns
=17	=17
8.cc/	feſt-
16g	-lich
16fL	ihn
16eJ	.
16dL	ent-
16cJ	.
=18	=18
(16cL	-la-
16aJ)	.
8a	ſten;
8r}	.
{16a	je-
16a	-der
=19	=19
8.dd/	Scheitel
16a	.
16gL	ſei
16f#J	.
16eL	be-
16dJ	.
=20	=20
4b/	-deckt,
8r}	.
{16g	und
16g	dann
=21	=21
8.cc/	laßt
16g	ihn
16fL	un-
16eJ	.
16dL	-be-
16cJ	.
=22	=22
8a}	-fleckt
{16a	bis
16b/	ʒur
16cc/	nächſten
16a	.
16g	Fei-
16f	-er
=23	=23
(4e	ra-
4d)	.
=24	=24
8c}	-ſten,
!LO:TX:a:t=Alle.	!
{16ee	bis
16ee	ʒur
16ee	nächſten
16ee	.
16ee	Fei-
16ee	-er
=25	=25
2dd/	ra-
=26	=26
8ee/}	-ſten,
{16ee/	bis
16ee/	ʒur
16ee/	nächſten
16ee/	.
16ee/	Fei-
16ee/	-er-
=27	=27
2dd/	ra-
=28	=28
4cc/	-ſten
4r}	.
==	==
!!!AGN: Studenten -, Burschenschafts - Lied
!!!ONB: ESAC (Essen Associative Code) Database: FINK
!!!AMT: simple duple
!!!AIN: vox
!!!EED: Helmut Schaffrath
!!!EEV: 1.0
!!!GTL: Studentenlieder
!!!source: Musikalischer Hausschatz der Deutschen. Eine Sammlung von über 1000 Liedern und Gesängen mit Singstimmen und Klavierbegleitung. Leipzig, Litterarisches Verlags-Haus.
!!!page: 297
!!!URL-scan: https://www.digitale-sammlungen.de/en/view/bsb11144622?page=275
!!!ENC: Anna Maria Matuszewska
!!!EEV: 2024/08/01
*-	*-